X: 188
T:Farmer's Tune(). JaW.187
M:C
Q:180
S:James Winder Ms, Lancashire, 1835-41
R:Hornpipe
O:England
A:Wyresdale,Lancashire
H:1/8
Z:vmp.Chris Partington, Aug 2004
K:D
A2|dfdf cece|dfdf A2A2|d2b2bagf|gfed dcBA|!
dfdf cece|dfdf A2A2|Bbag afed|(e4d2):|!
|:fg|afaf afaf|bagf g2ef|gege gege|agfe f2A2|!
dfdf cece|dfdf A2A2|Bbag fedc|d2d2d2:|]
